X:1
T:Title
%%score { ( 1 4 ) | ( 2 3 ) }
L:1/8
M:6/8
K:Eb
V:1 treble nm="Grand Piano"
V:4 treble 
V:2 bass 
V:3 bass 
V:1
 z3 z2[Q:1/4=84] E | GGG GFE | [GB]3 G2 G | FFF =AGA |[M:5/8] [Ec]3 B2 |[M:1/8] E | %6
[M:3/4] G_G =G [GB]2 [GB] |[M:7/8] cAc e c2 c |[M:3/4] B>c B[B,EG] [G,E][A,DF] | %9
[M:5/8] [G,E]-[G,E]- [G,E]3 |[M:1/8] [B,EG] |[M:3/4] [GB]>[Ac] [GB]G FE | G6 | %13
 [GB]>[GB] [GB][Ac] [GB][B,EG] |[M:5/8] F-F- F3 |[M:1/8] E |[M:3/4] G>_G =G[GB] [EG][GB] | %17
[M:7/8] cAc e c2 c |[M:3/4] B>c B[B,EG] [G,E][A,DF] |[M:5/8] [G,E]-[G,E]- [G,E]3 |] %20
V:2
 z3 z2 [E,G,B,] | [E,B,E][E,B,E][E,B,E] [E,B,E][E,A,E][E,G,] | [E,E]3 [E,B,E]2 [E,B,E] | %3
 [F,B,D][F,B,D][F,B,D] [F,E][F,E][F,E] |[M:5/8] z z2 D2 |[M:1/8] [E,G,] | %6
[M:3/4] [E,B,E][E,=A,E] [E,B,E] [E,E]2 [E,E] | %7
[M:7/8][K:treble] [A,EA][A,CE][A,EA] [A,A]- [A,EA]2 [A,E_G] | %8
[M:3/4] [B,EG]>[B,EA] [B,EG][K:bass]B,, B,,B,, |[M:5/8] E,-E,- E,3 |[M:1/8] E, | %11
[M:3/4] [E,E]>[E,E] [E,E][E,B,E] [E,A,E][E,G,] | [B,E]2 z2 z2 | [E,E]>[E,E] [E,E][E,E] [E,E]E, | %14
[M:5/8] z2 B, B,2 |[M:1/8] [E,G,] |[M:3/4] [E,B,E]>[E,=A,E] [E,B,E][E,E] [E,B,][E,E] | %17
[M:7/8][K:treble] [A,EA][A,CE][A,EA] [A,A]- [A,EA]2 [=A,E_G] | %18
[M:3/4] [B,EG]>[B,EA] [B,EG][K:bass]B,, B,,B,, |[M:5/8] E,-E,- E,3 |] %20
V:3
 x6 | x6 | x6 | x6 |[M:5/8] [B,,F,]-[B,,F,]- [B,,F,]3 |[M:1/8] x |[M:3/4] x6 | %7
[M:7/8][K:treble] z z2 C z z2 |[M:3/4] x3[K:bass] x3 |[M:5/8] x5 |[M:1/8] x |[M:3/4] x6 | %12
 E,2- [E,-B,] [E,B,]2 [E,B,E] | x6 |[M:5/8] B,,-B,,- B,,3 |[M:1/8] x |[M:3/4] x6 | %17
[M:7/8][K:treble] z z2 C z z2 |[M:3/4] x3[K:bass] x3 |[M:5/8] x5 |] %20
V:4
 x6 | x6 | x6 | x6 |[M:5/8] x5 |[M:1/8] x |[M:3/4] x6 |[M:7/8] x7 |[M:3/4] x6 |[M:5/8] x5 | %10
[M:1/8] x |[M:3/4] x6 | z2 E E2 G | x6 |[M:5/8] [B,D]2 D D2 |[M:1/8] x |[M:3/4] x6 |[M:7/8] x7 | %18
[M:3/4] x6 |[M:5/8] x5 |] %20

